symbols/web/home_repair_service/materialsymbolsrounded/home_repair_service_wght200grad200fill1_48px.svg

<svg xmlns="http://www.w3.org/2000/svg" height="48" width="48"><path d="M5.7 21.05q0-1.35 1-2.375t2.4-1.025h5.6V14.2q0-1.35 1-2.375t2.4-1.025h11.85q1.35 0 2.375 1.025T33.35 14.2v3.45h5.6q1.35 0 2.375 1.025t1.025 2.375v6.4H35.1V26q0-.45-.325-.775T34 24.9q-.45 0-.75.325t-.3.775v1.45H15.1V26q0-.45-.325-.775T14 24.9q-.45 0-.75.325t-.3.775v1.45H5.7Zm11.2-3.4h14.25V14.2q0-.5-.35-.85t-.85-.35H18.1q-.5 0-.85.35t-.35.85ZM9.1 38.3q-1.4 0-2.4-1t-1-2.4v-5.85H13v1.25q.1.4.375.575.275.175.625.175.4 0 .65-.175t.4-.575v-1.25H33v1.25q.1.4.375.575.275.175.625.175.4 0 .65-.175t.4-.575v-1.25h7.3v5.85q0 1.4-1.025 2.4t-2.375 1Z"/></svg>

<svg xmlns="http://www.w3.org/2000/svg" height="48" width="48"><path d="M5.7 21.05Q5.7 19.7 6.7 18.675Q7.7 17.65 9.1 17.65H14.7V14.2Q14.7 12.85 15.7 11.825Q16.7 10.8 18.1 10.8H29.95Q31.3 10.8 32.325 11.825Q33.35 12.85 33.35 14.2V17.65H38.95Q40.3 17.65 41.325 18.675Q42.35 19.7 42.35 21.05V27.45H35.1V26Q35.1 25.55 34.775 25.225Q34.45 24.9 34 24.9Q33.55 24.9 33.25 25.225Q32.95 25.55 32.95 26V27.45H15.1V26Q15.1 25.55 14.775 25.225Q14.45 24.9 14 24.9Q13.55 24.9 13.25 25.225Q12.95 25.55 12.95 26V27.45H5.7ZM16.9 17.65H31.15V14.2Q31.15 13.7 30.8 13.35Q30.45 13 29.95 13H18.1Q17.6 13 17.25 13.35Q16.9 13.7 16.9 14.2ZM9.1 38.3Q7.7 38.3 6.7 37.3Q5.7 36.3 5.7 34.9V29.05H13V30.3Q13.1 30.7 13.375 30.875Q13.65 31.05 14 31.05Q14.4 31.05 14.65 30.875Q14.9 30.7 15.05 30.3V29.05H33V30.3Q33.1 30.7 33.375 30.875Q33.65 31.05 34 31.05Q34.4 31.05 34.65 30.875Q34.9 30.7 35.05 30.3V29.05H42.35V34.9Q42.35 36.3 41.325 37.3Q40.3 38.3 38.95 38.3Z"/></svg>
